X: 021
T: 6 les Biscuits
T: les Biscuits
B: Robert Landrin "Potpourri fran\,cois des contre-danse ancienne tel quil se danse chez la Reine ..." 1760 p.2 #1 dance 01 #6
S: http://memory.loc.gov/cgi-bin/query/D?musdibib:2:./temp/~ammem_EbRS:
Z: 2013 John Chambers <jc:trillian.mit.edu>
M: 2/4
L: 1/16
K: G
% - - - - - - - - - - - - - - - - - - - - - - - - -
Bcd2 |\
G4 A4 | B2G2 Bcd2 |\
G4 A4 | B4 :|\
|: !f!G2A2 |\
A2B2G2A2 | B4 GAc2 |
GAB2 B2AG | A2D2 G2A2 |\
A2B2G2A2 | B4 GABc |\
d2cB A3G | G4 :|
% - - - - - - - - - - - - - - - - - - - - - - - - -
%%center \'a chaque reprises l'on trouve un chifre qui prononces
%%center la quantit\'e qu'il faut les jo\"uer

%%sep 1 1 500
%%sep 1 1 500
